X: 10161
T: 1. Mazurka
R: mazurka
B: K\"ohler's Violin Repository, v.1, 1885 p.16 #1
F: http://www.archive.org/details/klersviolinrepos01edin
Z: 2011 John Chambers <jc:trillian.mit.edu>
M: 3/4
L: 1/8
K: Bb
F2 |\
{c}B>AB2d2 | {g}f>=ef2d2 | b>ab2g2 | {g}f>=ef2d2 |\
{c}B>AB2d2 | {g}f>=ef2d2 | c>de2A2 | B2z2 :|
c2 |\
a2f2=ed | c3=efg | a2f2=ed | (cf)g=ef2 |\
a2f2=ed | c3=efg | (f>=e)d>cd>e | f2z2 |]
B2 |\
(.b>.a)b2f>d | B>df2d2 | c>de2A2 | B>df2(d>f) |\
(.b>.a)b2f>d | B>df2d2 | c>de2A2 | B2z2 |]
|: B2 |\
AFc2(AF) | B>df2(d>f) | (.b>.a)b2f>d | {a}g>^fg2B2 |\
AFc2(AF) | B>df2(e>d) | c>de2A2 | B2z2 :|

%%sep 2 1 500

